X: 134
T: No_68_Song_Concerning_the_Black_Snake.krn
N: Derived from No_68_Song_Concerning_the_Black_Snake.krn
%%abc-version 2.0
%%abcx-abcm2ps-target-version 5.9.1 (29 Sep 2008)
%%abc-creator hum2abc beta
%%abcx-conversion-date 2019/03/15 08:37:56
%%humdrum-veritas 2397996932
%%humdrum-veritas-data 3423672977
%%linebreak <none>
%%barnumbers 0
L: 1/16
M: 2/4
K: E clef=bass
[K:clef=bass][M:2/4]C3B, C3C | 
C4B,3G, | 
B,4(G,3F,) | 
G,4G,4 | 
G,3G,C4 ]|:  
C3B, (B,3G,) | 
G,4G,3E, | 
E,3E, C,3E, | 
E,4C,3C, | 
C,8- | 
C,3G,G,4 | 
G,3F, (F,3E,) | 
E,4E,3E, ||  
[M:3/4]E,3E, E,3E,C,4 ||  
[M:2/4]E,3E,E,4 | 
E,8- | 
E,8 | 
E,3E,C4 :|]  



